X:1
T:Transcendental Étude
T:Transcendental Étude
T:No. 8 "Wilde Jagd"
T:Franz Liszt
C:Franz Liszt
%%score { ( 1 3 ) | ( 2 4 ) }
L:1/8
Q:3/8=116
M:6/8
K:Eb
V:1 treble nm="鋼琴" snm="Pno."
V:3 treble 
V:2 bass 
V:4 bass 
V:1
"^Presto furioso""^[]"!fff! z/[I:staff +1] C,/[I:staff -1]z/[I:staff +1]G,/[I:staff -1]z/[I:staff +1]F,/[I:staff -1]z/[I:staff +1]E,/[I:staff -1]z/[I:staff +1]D,/[I:staff -1]z/[Q:1/4=100][I:staff +1]C,/ | %1
[Q:1/4=160][I:staff -1] !wedge![cec']z/!wedge![Gceg]/!wedge![Gceg]zz/!wedge![EGe]/!wedge![EGe] | %2
 z z/ !wedge![EGc]/!wedge![EGc] !wedge![EG=B]!wedge![EGc] z | %3
!fff! z/[I:staff +1] [=B,,D,]/[I:staff -1]z/[I:staff +1]A,/[I:staff -1]z/[I:staff +1]G,/[I:staff -1]z/[I:staff +1]F,/[I:staff -1]z/[I:staff +1]E,/[I:staff -1]z/[Q:1/4=100][I:staff +1]D,/ | %4
[Q:1/4=160][I:staff -1] !wedge![dfd']z/!wedge![Ada]/!wedge![Ada]zz/!wedge![FAf]/!wedge![FAf] | %5
 z z/ !wedge![DAd]/!wedge![DAd] !wedge![^CA^c]!wedge![DAd] z | %6
 z !wedge![EGe] (C/4D/4E/4F/4)!wedge!G !wedge![Fcf]!wedge![cec'] | %7
 !wedge![cdc'] (F/4E/4D/4C/4)!wedge!B, !wedge![Bdb]!wedge![dbe'] !wedge![cae'] | %8
 (A,/4B,/4C/4D/4)!wedge!E !wedge![dac'd'] !>!!wedge![ac'a']!wedge![a=ba'] (D/4C/4=B,/4A,/4) | %9
!wedge!G,!8va(! !wedge![g_b_d'g']!wedge![c'g'b'c''] !wedge![c'a'c'']!8va)! (=B,/4C/4=D/4=E/4)!wedge!F | %10
!8va(! !wedge![f'a'f'']!8va)! (_D/4E/4F/4_G/4)!wedge!A (_d/4e/4f/4_g/4)!wedge!a!8va(! (_d'/4e'/4f'/4_g'/4) | %11
 !wedge!a' z/ !wedge![_d'f'_d'']/!wedge![d'f'd''] !wedge![ad'a']z/!wedge![faf']/!wedge![faf']!8va)! | %12
 z z/ !wedge![_dfa_d']/!wedge![dfad'] !wedge![c=eac']!wedge![dfad'] z | %13
 !>!!wedge![fa=d'f']z/!wedge![^c^c']/!wedge![dd'] !>!!wedge![e^f=ae']z/!wedge![=B=b]/!wedge![=c=c'] | %14
 !wedge![g=bg'] z/[I:staff +1] D,/[I:staff -1]z/[I:staff +1]C,/[I:staff -1]z/[I:staff +1]=B,,/[I:staff -1]z/[I:staff +1]A,,/[I:staff -1]z/[Q:1/4=100][I:staff +1]G,,/ | %15
[Q:1/4=160][I:staff -1] !wedge![e^fe']z/!wedge![cec']/!wedge![cec'] z z/ !wedge![=Ac=a]/!wedge![Aca] | %16
 z[Q:1/4=128] !wedge![^F^f]/!wedge![Ee]/!wedge![Dd]/!wedge![Cc]/[Q:1/4=160] !wedge![G=Bg] z/!>(![I:staff +1] D,/[I:staff -1]z/[I:staff +1]C,/ | %17
[I:staff -1]z/[I:staff +1]=B,,/[I:staff -1]z/[I:staff +1]A,,/!>)!!f![I:staff -1]z/[Q:1/4=100][I:staff +1]G,,/[Q:1/4=160][I:staff -1] !wedge![e^fe']z/!wedge![cec']/!wedge![cec'] | %18
 z z/ !wedge![=Ac=a]/!wedge![Aca] z[Q:1/4=128] !wedge![^F^f]/!wedge![Ee]/!wedge![Dd]/!wedge![Cc]/ | %19
[Q:1/4=160] !wedge![G=Bg] z/ D/z/C/z/=B,/z/=A,/z/G,/ | z/ _A/z/_G/z/F/z/E/z/_D/ !wedge![fa_d'f'] | %21
 !wedge![=g=b=d'=g'] z/ D/z/C/z/=B,/z/=A,/z/G,/ | %22
 z/ _A/z/_G/z/F/z/E/z/_D/[Q:1/4=152]!8va(! !wedge![fa_d'f'] | %23
 [=b=d'=g'=b']3[Q:1/4=148] [c'f'a'c'']3 |[Q:1/4=142] [_d'f'a'_d'']3[Q:1/4=136] [=d'f'a'=d'']3 | %25
[Q:1/4=122] (4:3:4!>![f'c''d''f'']2 !>![f'c''d''f'']2[Q:1/4=136] !>![f'c''d''f'']2 !>![f'c''d''f'']2!8va)! | %26
 !wedge!=B,!8va(!"_dimin. poco a poco" (9:8:9(!^!a'/4g'/4^f'/4=f'/4=e'/4_e'/4d'/4^c'/4=c'/4) !wedge!=b!8va)! (9:8:9(!^!a/4g/4^f/4=f/4=e/4_e/4d/4^c/4=c/4) | %27
 !wedge!=B (9:8:9(!^!A/4G/4^F/4=F/4=E/4_E/4D/4^C/4=C/4) !wedge!=B,[K:bass] (9:8:9(!^!A,/4G,/4^F,/4=F,/4=E,/4_E,/4D,/4^C,/4=C,/4) | %28
!p!!<(! (18:12:18(=B,,/C,/^C,/D,/E,/=E,/F,/^F,/G,/!<)!!ff!!>(!A,/G,/F,/=F,/E,/_E,/D,/^C,/=C,/)!>)! | %29
!p! =B,, z z G, z z |[Q:1/4=112] !fermata!z6 | %31
!ff![Q:1/4=160] z/[I:staff +1] C,/[I:staff -1]z/[I:staff +1]G,/[I:staff -1]z/[I:staff +1]F,/[I:staff -1]z/[I:staff +1]E,/[I:staff -1]z/[I:staff +1]D,/[I:staff -1]z/[Q:1/4=100][I:staff +1]C,/ | %32
[I:staff -1][K:treble][Q:1/4=160] !wedge![cec']z/!wedge![Gceg]/!wedge![Gceg]zz/!wedge![EGe]/!wedge![EGe] | %33
 z z/ !wedge![EGc]/!wedge![EGc] !wedge![EG=B]!wedge![EGc] z | %34
!ff! z/[I:staff +1] _D,/[I:staff -1]z/[I:staff +1]A,/[I:staff -1]z/[I:staff +1]_G,/[I:staff -1]z/[I:staff +1]F,/[I:staff -1]z/[I:staff +1]E,/[I:staff -1]z/[Q:1/4=100][I:staff +1]D,/ | %35
[Q:1/4=160][I:staff -1] !wedge![_df_d']z/!wedge![Ada]/!wedge![Ada] z z/ !wedge![FAf]/!wedge![FAf] | %36
 z z/ !wedge![_DA_d]/!wedge![DAd] !wedge![=CA=c]!wedge![DAd] z | %37
 z !wedge![=DA=d] (B,/4C/4D/4E/4)!wedge!F !wedge![E_Ge]!wedge![GB_g] | %38
 !wedge![Bdb] (F/4E/4D/4C/4)!wedge!B,!<(! !wedge![_ce_c']!wedge![ec'e'] !wedge![_fc'_f']!<)! | %39
 (_F/4_G/4A/4__B/4)!wedge!_c!8va(! !wedge![ec'e'] !wedge![c'e'=c'']!wedge![_c'_f'_c'']!8va)! (c/4B/4A/4G/4) | %40
!wedge!_F!8va(! !wedge![b_d'b']!wedge![^c'b'^c''] !wedge![=d'=a'=d'']!8va)! (D/4=E/4^F/4G/4)!wedge!=A | %41
!8va(! !wedge![d'_a'_c''d'']!8va)! (D/4F/4A/4B/4)!wedge!_c (d/4f/4a/4b/4)!wedge!_c'!8va(! (d'/4^e'/4^g'/4^a'/4) | %42
 !wedge!=b' z/ !wedge![^d'b'^d'']/!wedge![d'b'd''] !wedge![=be'b']z/!wedge![^fb^f']/!wedge![fbf'] | %43
 z z/ !wedge![^d=b^d']/!wedge![dbd'] !wedge![=db=d']!wedge![^db^d'] z | %44
 !wedge![_g_c'_g']z/!wedge![dd']/!wedge![ee'] !wedge![g=c'g']z/!wedge![dd']/!wedge![ee'] | %45
 !wedge![bd'b']!8va)! z/!>(![I:staff +1] F,/[I:staff -1]z/[I:staff +1]E,/[I:staff -1]z/[I:staff +1]D,/[I:staff -1]z/[I:staff +1]_C,/[I:staff -1]z/[Q:1/4=100][I:staff +1]B,,/!>)! | %46
[Q:1/4=160][I:staff -1] !wedge![_g=a_g']z/!wedge![ege']/!wedge![ege'] z z/ !wedge![cec']/!wedge![cec'] | %47
 z[Q:1/4=128] !wedge![=Ac=a]/!wedge![_G_g]/!wedge![Ff]/!wedge![Ee]/[Q:1/4=160] !wedge![Bdb] z/!>(! F/z/E/ | %48
z/D/z/_C/!>)!!f!z/[Q:1/4=100]B,/[Q:1/4=160]!8va(! !wedge![e'_g'e'']z/!wedge![=c'e'=c'']/!wedge![c'e'c''] | %49
 z z/ !wedge![=ac'=a']/!wedge![ac'a'] z[Q:1/4=128] !wedge![_g_g']/!wedge![ff']/!wedge![=e=e']/!wedge![_e_e']/ | %50
[Q:1/4=160] !wedge![bd'b']!8va)!!f![I:staff +1] F/!<(![I:staff -1][_AB]/[I:staff +1]E/[I:staff -1][AB]/[I:staff +1]D/[I:staff -1][AB]/[I:staff +1]C/[I:staff -1][AB]/[I:staff +1]B,/[I:staff -1][AB]/!<)! | %51
 ([_C_c]/_F/A/c/_f/a/!8va(!_c'/_f'/a'/b'/)!wedge![c'f'_c''] | %52
 !wedge![d'=f'd'']!8va)!!f![I:staff +1] F/!<(![I:staff -1][_AB]/[I:staff +1]E/[I:staff -1][AB]/[I:staff +1]D/[I:staff -1][AB]/[I:staff +1]C/[I:staff -1][AB]/[I:staff +1]B,/[I:staff -1][AB]/!<)! | %53
 ([_C_c]/_F/A/c/_f/a/!8va(!_c'/_f'/a'/b'/)!wedge![c'f'_c''] | %54
 !wedge![d'=f'd'']!8va)![Q:1/4=168] z/ [Bdb]/[Bdb] !wedge![Bdb] z/ [_ce_c']/[cec'] | %55
 !wedge![_ce_c'] z/ [=c=e=c']/[cec'] !wedge![cec'] z/ [_df_d']/[dfd'] | %56
 !wedge![_df_d'] z/!8va(! [fa_d'f']/[fad'f'] !wedge![fad'f'] z/ [a=d'b']/[ad'b'] | %57
 !wedge![ad'b']!8va)! z/ B/B Bz/B/B | %58
[Q:1/4=168]"^ben in tempo"!mp! .[GBg]z/.[Be]/.[Be] .[Be]z/.[GB]/.[GB] | .[EG]z/.[CE]/.[CE] .[CE]3 | %60
 .[B,DB]z/.[B,F]/.[B,F] .[B,=E].[B,F].[B,^FB] | ([B,GB]3 .[EG]) z z | %62
 .[Beg]z/.[GBe]/.[GBe] .[GBe]z/.[EGB]/.[EGB] | .[EG]z/.[CE]/.[CE] [CE]3 | %64
!<(! .[=B,D=B]z/.[B,D]/.[B,D] .[B,^C].[B,D].[B,DG]!<)! | %65
[Q:1/4=112] !fermata![=B,D=B]3[Q:1/4=90] !fermata![_B,D_B]3 | %66
!mf![Q:1/4=168] .[gbg']z/.[ege']/.[ege'] .[ege']z/.[Beb]/.[Beb] | .[Geg]z/.[Gce]/.[Gce] [Gce]3 | %68
 .[ABdb]z/.[ABf]/.[ABf] .[AB=e].[ABf].[AB^fb] | ([Bgb]3 .[GBg]) z z | %70
!8va(! .[e'g'e'']z/"_cresc.".[be'b']/.[be'b'] .[be'b']z/.[ge'g']/.[ge'g'] | %71
 .[ge'g']z/.[ec'e']/.[ec'e'] [ec'e']3 | %72
!ff! .[=bd'=b']z/.[dbd']/.[dbd']!<(! .[^c^a^c'].[dbd']!<)!.[gbg'] | %73
 [=bd'=b']z/[^fd'^f']/[fd'f']"^ten." [fd'f']3 | %74
 [_b_d'_b']z/[_dbd']/[_dbd']!<(! .[c=ac'].[dbd']!<)!.[_gb_g'] | %75
 [b_d'b']z/[fd'f']/[fd'f']"^ten." [fd'f']3 | %76
 [=ac'=a']!8va)!z/[c=ac']/[cac'] [=ec'=e']z/[^d=b^d']/[ec'e'] | %77
 [^g=b^g']z/[=Bgb]/[Bgb] [_e_c'_e']z/[=dc'=d']/[ec'e'] | %78
 [=gb=g']z/[Beg]/[Beg] [_gb_g']z/[Beg]/[Beg] | [_fa_f']z/[A_cf]/[Acf] [e_ge']z/[_G__Be]/[GBe] | %80
{/e'} !wedge!!^![_d_d'] z/ [_GBd]/[=GBd]!<(! [GBd]z/[A_cd]/!<)![FAd] | %81
{/e'} !wedge!!^![_d_d'] z/ [_GBd]/[=GBd]!<(! [GBd]z/[A_cd]/!<)![FAd] | %82
{/_c'} !wedge!!^![Bb] z/ [E_GB]/[=E=GB] [EGB]z/[FAB]/[DFB] | %83
[Q:1/4=152]{/_c'} !wedge!!^![Bb][Q:1/4=136] z/!>(!"^poco rall." [E_GB]/[Q:1/4=120][=E=GB][Q:1/4=104] [EGB][Q:1/4=88]z/[FAB]/[Q:1/4=24][DFB]!>)! | %84
[Q:1/4=120]"^un poco rit. a capriccio"[Q:1/4=90]!pp! !>!G3/2[Q:1/4=100] !>!!tenuto!x3/2[Q:1/4=110] !>!!tenuto!x3/2[Q:1/4=120] !>!!tenuto!x3/2 | %85
[Q:1/4=130]"^espressivo" !>!G3/2 !>!!tenuto!x3/2 !>!G3 |!<(! !>!x3/2 !>!x3/2 !>!x3/2 !>!x3/2 | %87
 !>!x3/2 !>!x3/2!<)!!mf!!>(! !>!x3/2 !>!x3/2!>)! | %88
!pp! !>!G3/2 !>!!tenuto!x3/2 !>!!tenuto!x3/2 !>!!tenuto!x3/2 | !>!G3/2 !>!!tenuto!x3/2 !>!G3 | %90
!mf!!>(! !>!x3/2 !>!x3/2!>)!!mf!!>(!!<(! !>!x3/2 !>!x3/2!>)! | %91
 !>!x3/2 !>!x3/2!<)!!mf![Q:1/4=100]!>(! !>!x3/2[Q:1/4=90][Q:1/4=80][Q:1/4=70] !>!x !>!B/!>)! | %92
[Q:1/4=80]!pp! !>!g3/2[Q:1/4=90] !>!!tenuto!x3/2[Q:1/4=100][Q:1/4=110] !>!!tenuto!x3/2[Q:1/4=120] !>!!tenuto!x3/2[Q:1/4=130] | %93
 !>!g3/2 !>!!tenuto!x3/2 !>!g3 | !>!g3/2 !>!=e3/2 !>!f3/2 !>!g3/2 | %95
 !>!a3/2 !>!=a3/2!mf!!>(! !>!c'3/2 !>!b3/2!>)! | %96
!pp! !>!g3/2 !>!!tenuto!x3/2 !>!!tenuto!x3/2 !>!!tenuto!x3/2 | !>!g3/2 !>!!tenuto!x3/2 !>!g3 | %98
!<(! !>!g3/2 !>!^f3/2!<)!!mf!!>(! !>!e'3/2 !>!d'3/2!>)! | %99
!mp!"_dim." !>!d'3/2 !>!=b3/2 !>!g3/2 !>!g3/2 | %100
!pp!"_laguendo" !>!g3/2 !>!!tenuto!x3/2 !>!!tenuto!x3/2 !>!!tenuto!x3/2 | %101
 !>!g3/2 !>!!tenuto!x3/2 !>!g3 | !>!g3/2 !>!^e3/2!<(! !>!^f3/2 !>!g3/2 | %103
 !>!^g3/2 !>!=a3/2!<)!!mf!!>(! !>!c'3/2 !>!=b3/2!>)! | %104
!pp! !>!g3/2 !>!!tenuto!x3/2 !>!!tenuto!x3/2 !>!!tenuto!x3/2 | !>!g3/2 !>!!tenuto!x3/2 !>!g3 | %106
 !>!g3/2 !>!f3/2!<(! !>!^f3/2 !>!g3/2 | !>!^g3/2 !>!=a3/2!<)!!mf!!>(! !>!e'3/2 !>!d'3/2!>)! | %108
!pp! !>!b3/2 !>!!tenuto!x3/2 !>!!tenuto!x3/2 !>!!tenuto!x !>!e/ | %109
!mp! !>!c'3/2 !>!x3/2 !>!c'3/2 !>!x3/2 | %110
 !>!_d'3/2 !>!!tenuto!x3/2 !>!!tenuto!x3/2 !>!!tenuto!x !>!_g/ | %111
 !>!e'3/2 !>!x3/2 !>!e'3/2 !>!x !>!a/ | %112
!8va(! !>!f'3/2 !>!!tenuto!x3/2 !>!!tenuto!x3/2 !>!!tenuto!x3/2 | %113
!f!"_molto rinforz." !>!f'3/2 !>!x3/2 !>!f'3/2 !>!x3/2 | %114
 !>!f'3[Q:1/4=120] !>!^f'3[Q:1/4=110][Q:1/4=100] || %115
[M:2/4][Q:3/8=67]"^[]"!fff![Q:1/4=60] (3!>!g'/b/e'/[Q:1/4=75](3!>!=f'/g/b/[Q:1/4=90](3!>!e'/g/b/(3!>!d'/g/b/ | %116
 (3!>!c'/e/g/(3!>!=a/e/g/(3!>!b/e/g/ (3g/b/e'/ | %117
 (3!>!g/!<(!_c'/d'/(3!>!=e/c'/d'/(3!>!f/c'/d'/(3!>!g/c'/d'/ | %118
 (3!>!a/d'/f'/(3!>!=a/d'/!<)!!ff!f'/!>(!(3!>!c'/d'/f'/(3!>!b/d'/f'/!>)! | %119
!ff! (3!>!g'/b/e'/(3!>!=f'/g/b/(3!>!e'/g/b/(3!>!d'/g/b/ | %120
 (3!>!c'/e/g/(3!>!=a/e/g/(3!>!b/e/g/ (3g/b/e'/ | %121
!<(! (3!>!g/=a/c'/(3!>!^f/a/c'/!<)!!ff!!>(! (3!>!e'/^f'/=a'/(3!>!d'/f'/a'/!>)! | %122
!ff! (3!>!d'/g'/=b'/(3!>!=b/d'/!<(!g'/(3!>!g/b/d'/(3!>!g/b/d'/!<)! | %123
!ff! (3!>!_a/c'/e'/(3!>!g/c'/e'/(3!>!f/g/c'/(3!>!e/g/c'/ | %124
!>(! (3!>!e/a/c'/(3!>!d/a/c'/(3!>!d/!>)!!ff!a/c'/(3!>!d/a/c'/ | %125
 (3!>!e/g/=b/(3!>!d/g/b/!8va)!(3!>!c/d/g/(3!>!=B/d/g/ | %126
!>(! (3!>!A/=B/d/(3!>!G/!>)!!f!B/d/(3!>!G/B/d/(3!>!G/B/d/ | %127
"_poco a poco dim." (3!>!_B/c/e/(3!>!A/c/e/(3!>!G/c/e/(3!>!F/G/c/ | %128
!>(! (3!>!E/A/c/!>)!(3!>!D/A/c/(3!>!D/A/c/(3!>!D/A/c/ | %129
 (3!>!E/G/=B/(3!>!D/G/B/(3!>!C/D/G/(3!>!=B,/D/G/ | %130
 (3!>!_B,/_D/F/(3!>!A,/D/F/(3!>!G,/A,/D/(3!>!F,/A,/D/ | %131
!mp![Q:1/4=96]"_e rall." (3!>!E/G/=B/[Q:1/4=92](3!>!=D/G/B/[Q:1/4=88](3!>!C/E/G/[Q:1/4=84](3!>!=B,/D/G/ | %132
!p![Q:1/4=76]"_smorz." (3!>!_B,/_D/F/[Q:1/4=68](3!>!A,/D/F/"^rit. molto"[Q:1/4=52](3!>!G,/A,/D/[Q:1/4=48](3!>!F,/A,/D/ || %133
[M:6/8]!pp![Q:1/4=144]"^Tempo I"[Q:3/8=72]"^[]"[Q:1/4=178] !wedge![=B,=D] z/[I:staff +1] D,/[I:staff -1]z/[I:staff +1]C,/[I:staff -1]z/[I:staff +1]=B,,/[I:staff -1]z/[I:staff +1]A,,/[I:staff -1]z/[I:staff +1]G,,/ | %134
[I:staff -1] z/[I:staff +1] A,/[I:staff -1]z/[I:staff +1]G,/[I:staff -1]z/[I:staff +1]F,/[I:staff -1]z/[I:staff +1]E,/[I:staff -1]z/[Q:1/4=100][I:staff +1]_D,/[Q:1/4=178][I:staff -1] !wedge![A,_DF] | %135
 !wedge![G,=B,G] z/[I:staff +1] D,/[I:staff -1]z/[I:staff +1]C,/[I:staff -1]z/[I:staff +1]=B,,/[I:staff -1]z/[I:staff +1]A,,/[I:staff -1]z/[I:staff +1]G,,/ | %136
[I:staff -1] z/[I:staff +1] A,/[I:staff -1]z/[I:staff +1]G,/[I:staff -1]z/[I:staff +1]F,/[I:staff -1]z/[I:staff +1]E,/[I:staff -1]z/[Q:1/4=100][I:staff +1]_D,/[Q:1/4=178][I:staff -1] !wedge![A,_DF] | %137
 !wedge![A,CA] z/[I:staff +1] E,/[I:staff -1]z/[I:staff +1]_D,/[I:staff -1]z/[I:staff +1]C,/[I:staff -1]z/[I:staff +1]B,,/[I:staff -1]z/[I:staff +1]A,,/ | %138
[I:staff -1] z/[I:staff +1] A,/[I:staff -1]z/[I:staff +1]_G,/[I:staff -1]z/[I:staff +1]_F,/[I:staff -1]z/[I:staff +1]E,/[I:staff -1]z/[Q:1/4=100][I:staff +1]_D,/[Q:1/4=178][I:staff -1] !wedge![^G,^C=E] | %139
 !wedge![=A,^C=A] z/[I:staff +1] =E,/[I:staff -1]z/[I:staff +1]=D,/[I:staff -1]z/[I:staff +1]^C,/[I:staff -1]z/[I:staff +1]_B,,/[I:staff -1]z/[I:staff +1]=A,,/ | %140
[I:staff -1] z/[I:staff +1] =A,/[I:staff -1]z/[I:staff +1]G,/[I:staff -1]z/[I:staff +1]F,/[I:staff -1]z/[I:staff +1]=E,/[I:staff -1]z/[Q:1/4=100][I:staff +1]D,/[Q:1/4=178][I:staff -1] !wedge![=A,DF] | %141
 !wedge![B,DB]!pp! z/[I:staff +1] F,/[I:staff -1]z/[I:staff +1]_E,/[I:staff -1]z/[I:staff +1]D,/[I:staff -1]z/[I:staff +1]_C,/[I:staff -1]z/[Q:1/4=100][I:staff +1]B,,/ | %142
[Q:1/4=178][I:staff -1] !wedge![B,EB] z/[I:staff +1] _G,/[I:staff -1]z/[I:staff +1]F,/[I:staff -1]z/[I:staff +1]E,/[I:staff -1]z/[I:staff +1]_C,/[I:staff -1]z/[Q:1/4=100][I:staff +1]B,,/ | %143
[Q:1/4=178][I:staff -1] !wedge![DFd] z/[I:staff +1] _A,/[I:staff -1]z/[I:staff +1]F,/[I:staff -1]z/[I:staff +1]D,/[I:staff -1]z/[I:staff +1]^C,/[I:staff -1]z/[Q:1/4=100][I:staff +1]=B,,/ | %144
[Q:1/4=178][I:staff -1] !wedge![^F=A^f] z/[I:staff +1] =A,/[I:staff -1]z/[I:staff +1]^G,/[I:staff -1]z/[I:staff +1]^F,/[I:staff -1]z/[I:staff +1]^D,/[I:staff -1]z/[Q:1/4=100][I:staff +1]^B,,/ | %145
[Q:1/4=178]!p![I:staff -1] !wedge![^c^f=a]z/!wedge![=Acf]/!wedge![Acf] !wedge![^FAc]z/!wedge![^CFA]/!wedge![CFA] | %146
 z/!<(![I:staff +1] =D,/[I:staff -1]z/[I:staff +1]=A,/[I:staff -1]z/!<)!!f![I:staff +1]=G,/!>(![I:staff -1]z/[I:staff +1]^F,/[I:staff -1]z/[I:staff +1]=E,/[I:staff -1]z/!>)!!p![Q:1/4=100][I:staff +1]D,/ | %147
[Q:1/4=178][I:staff -1] !wedge![dg_b]z/!wedge![_Bdg]/!wedge![_Bdg] !wedge![GBd]z/!wedge![DGB]/!wedge![DGB] | %148
 z/!<(![I:staff +1] E,/[I:staff -1]z/[I:staff +1]B,/[I:staff -1]z/!<)!!f![I:staff +1]_A,/!>(![I:staff -1]z/[I:staff +1]G,/[I:staff -1]z/[I:staff +1]F,/[I:staff -1]z/!>)!!p![Q:1/4=100][I:staff +1]E,/ | %149
[Q:1/4=178][I:staff -1] !wedge![^d^g=b]z/!wedge![=Bdg]/!wedge![Bdg] !wedge![^GBd]z/!wedge![^DGB]/!wedge![DGB] | %150
!mf! !wedge![=e^g=e']z/!wedge![=Be=b]/!wedge![Beb] !wedge![^GBg]z/!wedge![=EGe]/!wedge![EGe] | %151
 !wedge![=e=a=e']z/!wedge![cec']/!wedge![cec'] !wedge![=Aca]z/!wedge![=EAe]/!wedge![EAe] | %152
 !wedge![f=af']z/!wedge![cfc']/!wedge![cfc'] !wedge![=Aca]z/!wedge![FAf]/!wedge![FAf] | %153
 !wedge![f_af']z/!wedge![_d_d']/!wedge![dd'] !wedge![fbd'f']z/!wedge![dd']/!wedge![dd'] | %154
 !wedge![_gb_d'_g']z/!wedge![_dd']/!wedge![dd'] !wedge![gbe'g']z/!wedge![ee']/!wedge![ee'] | %155
[Q:1/4=168]"_cresc."!8va(! !///-!!stemless![^f^d']3 !stemless!^f'3 | %156
 !///-!!stemless![^g^d']3 !stemless!^f'3 | !///-!!stemless![=b^d']3 !stemless!=b'3 | %158
 !///-!!stemless![=b=d']3 !stemless!=b'3 | %159
!f!"_più cresc." !//-![^b^d']3/2 ^b'3/2 !//-![^c'=e']3/2 ^c''3/2 | %160
 !///-!!stemless![d'=f']3 !stemless!d''3 | !///-!!stemless![d'f']3 !stemless!d''3 | %162
[Q:1/4=160] !//-![d'f']3/2 d''3/2[Q:1/4=132] !//-![^d'^f']3/2[Q:1/4=112] ^d''3/2[Q:1/4=148] || %163
[K:C][Q:1/4=172]!fff! [e'g'c''e'']z/[c'e'g'c'']/[c'e'g'c''] [c'e'g'c'']z/[gc'e'g']/[gc'e'g']!8va)! | %164
 [eac'e']z/[ceac']/[ceac'] [ceac']3 | %165
 [fgbg']z/[dgd']/[dgd'] !wedge![^cg^c']!wedge![dgd']!wedge![^dg^d'] | (!^![ege']3 .[cgc']) z z | %167
!8va(! [e'g'c''e'']z/[c'e'g'c'']/[c'e'g'c''] [c'e'g'c'']z/[gc'e'g']/[gc'e'g']!8va)! | %168
 [eac'e']z/[ceac']/[ceac'] [ceac']3 | %169
 [^d^f^d']z/[Bdf]/[Bdf]!<(! !wedge![d^e]!wedge![Bdf]!wedge![Bdb]!<)! | %170
[Q:1/4=112] !fermata![^d^f^d']3[Q:1/4=90] !fermata![=d=f=g=d']3 || %171
[M:2/4][Q:1/4=120]!ff! !wedge![egc'e'] [cegc']/>[Gceg]/ !wedge![Gceg] [EGce]/>[CEAc]/ | %172
 !wedge![CEAc] [A,CEA]/>[K:bass][E,A,CE]/ !wedge![E,A,CE] [C,E,A,C]/>[E,E]/ || %173
[M:6/8][Q:1/4=172] !wedge![F,B,G] z/ [F,B,D]/[F,B,D] !wedge![F,^A,^C]!wedge![F,B,D]!wedge![F,B,^D] | %174
 (14:12:14[CE]/G,/E,/G,/B,/E/[K:treble]G/c/e/g/c'/!8va(!e'/g'/c''/ || %175
[M:2/4][Q:1/4=120] !wedge![e'g'c''e''] [c'e'g'c'']/>[gc'e'g']/ !wedge![gc'e'g']!8va)! [egc'e']/>[ceac']/ | %176
 !wedge![ceac'] [Acea]/>[EAce]/ !wedge![EAce] !wedge![CEAc] || %177
[M:6/8][Q:1/4=172] !wedge![^gb^g'] z/ [Bb]/[Bb] !wedge![^A^a]!wedge![Bb]!wedge![ee'] | %178
 !wedge![_ac'_a'] z/ [_e_e']/[ee'] !wedge![dd']!wedge![ee']!wedge![ee'] | %179
 !wedge![g_bg'] z/ [_Bb]/[Bb] !wedge![Aa]!wedge![Bb]!wedge![_e_e'] | %180
 !wedge![g_bg'] z/ !wedge![dd']/!wedge![dd'] !wedge![^c^c']!wedge![dd']!wedge![dd'] | %181
 !wedge!!^![^fa^f'] [Aa][=Bf=b] !wedge!!^![^ca^c'][^B^g^b][cac'] | %182
 !wedge!!^![f_af'] [_Afa][_Bf_b] !wedge!!^![cac'][=Bg=b][cac'] || %183
[M:2/4][Q:1/4=120] [ege']/z/4[Gce]/4[Gce] [_eg_e']/z/4[Gce]/4[Gce] | %184
[Q:1/4=115]!>(! [_df_d']/z/4[F_Ad]/4[Q:1/4=110][FAd][Q:1/4=105] [c_ec']/[Q:1/4=95]z/4[_E^Fc]/4[Q:1/4=85][EFc]!>)! || %185
[M:6/8][Q:1/4=158]!p! !wedge![_B_b]!wedge![_B,B]!wedge![Bb]!wedge![b_b']!wedge![Bb]!wedge![B,B] | %186
 !wedge![_B_b]!wedge![_B,B]!wedge![Bb]!wedge![b_b']!wedge![Bb]!wedge![B,B] | %187
 !wedge![^c^c']!wedge![^Cc]!wedge![cc']!wedge![c'^c'']!wedge![cc']!wedge![Cc] | %188
 !wedge![^c^c']!wedge![^Cc]!wedge![cc']!wedge![c'^c'']!wedge![cc']!wedge![Cc] | %189
"_cresc. molto" !wedge![ee']!wedge![Ee]!8va(!!wedge![ee']!wedge![e'e'']!wedge![ee']!8va)!!wedge![Ee] | %190
 !wedge![gg']!wedge![Gg]!8va(!!wedge![gg']!wedge![g'g'']!wedge![gg']!8va)!!wedge![Gg] | %191
 !wedge![_b_b']!wedge![_Bb]!8va(!!wedge![bb']!wedge![b'_b'']!wedge![bb']!8va)!!wedge![Bb] | %192
[Q:1/4=154] !wedge![=b=b'][Q:1/4=146]!wedge![=Bb][Q:1/4=130]!8va(!!wedge![bb'][Q:1/4=114]!wedge![b'=b'']!wedge![bb']!8va)!!ff![Q:1/4=60]!wedge![Bb] | %193
[Q:1/4=158]!p!"^ben marcato il canto" [ee']3/2 [dd']3/2 [cc']3/2 [Bb]3/2 | %194
 [Aa]3/2 [^F^f]3/2 [Gg]3/2 [ee']3/2 | [ee']3/2 [^c^c']3/2 [dd']3/2 [ee']3/2 | %196
 [f=f']3/2!>(! [^f^f']3/2 [aa']3/2 [gg']3/2!>)! | [ee']/g/c'/[dd']/e/g/[cc']/e/g/[Bb]/e/g/ | %198
 [Aa]/c/e/[^F^f]/c/e/[Gg]/c/e/[ee']/g/c'/ | %199
"_cresc."!8va(! [ee']/^f/a/[^c^c']/f/a/[gg']/a/d'/[f^f']/a/d'/ | %200
[Q:1/4=150] [aa']/b/[Q:1/4=142]e'/[gg']/[Q:1/4=134]b/e'/[Q:1/4=126][bb']/=d'/[Q:1/4=102]=f'/[aa']/[Q:1/4=78][d'f']/[gg']/ || %201
[M:2/4]!fff! !wedge![e'g'e''][Q:1/4=134]!wedge![d'e'g'd''][Q:1/4=150]!wedge![c'e'g'c'']!wedge![be'g'b'] | %202
 !wedge![ac'e'a']!wedge![^fc'e'^f']!wedge![gc'e'g']!wedge![e'g'c''e''] | %203
"_simile"[Q:1/4=86] !wedge![e'^f'a'e''][Q:1/4=134]!wedge![^c'f'a'^c''][Q:1/4=150]!<(!!wedge![d'f'a'd'']!wedge![e'=f'a'e''] | %204
 !wedge![=f'_a'b'=f'']!<)!!wedge![d'f'a'd'']!wedge![_abd'a']!wedge![gbd'g']!8va)! | %205
[Q:1/4=104] !wedge![ege'][Q:1/4=134]!wedge![degd'][Q:1/4=150]!wedge![cegc']!wedge![Begb] | %206
 !wedge![Acea]!wedge![^Fce^f]!wedge![GBdg] !wedge![egc'e'] | %207
 !>![=f_a=f']!wedge![_ea_e']!wedge![_da_d']!wedge![cac'] | %208
 !wedge![_B_df_b]!wedge![Gdfg]!wedge![_Adf_a] !wedge![fa_d'f'] | %209
 !>![^f=a^f']!wedge![eae']!wedge![dfad']!wedge![Adfa] | %210
 !>![g_bg']!wedge![=fb=f'][Q:1/4=140]!wedge![ebe'][Q:1/4=130]!wedge![_Beb] | %211
[Q:1/4=108] !wedge![_a=bd'_a'][Q:1/4=125]!wedge![gbd'g'][Q:1/4=130]!wedge![fabf'][Q:1/4=135]!wedge![dfad'] | %212
[Q:1/4=140] !wedge![Bdfb]!wedge![_ABd_a]!wedge![GBdg]!wedge![FABf] | %213
 !wedge![DF_Ad]!wedge![B,DFB]!wedge![_A,B,D_A]!wedge![G,B,DG] | %214
[Q:1/4=130]!<(! !wedge![F,B,DF][Q:1/4=120]!wedge![_A,B,D_A][Q:1/4=110]!wedge![G,B,DG][Q:1/4=80]!wedge![F,A,DF]!<)![Q:1/4=60] || %215
[M:6/8][Q:1/4=130] !^!C/[Q:1/4=154][E,G,]/C/C/[EG]/c/c/[eg]/c'/c'/[Q:1/4=138]!8va(!!arpeggio!!wedge![e'g'c'']!8va)! | %216
[Q:1/4=154] !^!_D/[I:staff +1]F,/[_B,_D]/[I:staff -1]D/F/[_B_d]/d/f/[_b_d']/d'/[Q:1/4=138]!8va(!!arpeggio!!wedge![f'_b'_d'']!8va)! | %217
[Q:1/4=154] !^!C/[I:staff +1][E,G,]/[I:staff -1]C/C/[EG]/c/c/[eg]/c'/c'/[Q:1/4=138]!8va(!!arpeggio!!wedge![e'g'c'']!8va)! | %218
[Q:1/4=154] !^!F/[I:staff +1][_A,B,]/[I:staff -1]F/F/[_AB]/f/!8va(!f/[_ab]/f'/f'/[Q:1/4=138]!arpeggio!!wedge![_a'b'f'']!8va)! | %219
[Q:1/4=148] (!^![E,E]/G,/C/E/)!wedge![Gce] (!^![_D_d]/F/[_Bd]/d/)!wedge![f_b_d'] | %220
 (!^![Cc]/[EG]/c/c/)!wedge![egc']!8va(! (!^![ff']/[_ab]/f'/f'/)[Q:1/4=80][Q:1/4=80]!wedge![_a'b'f''] | %221
[Q:1/4=178] !wedge![g'c''e'']!wedge![f'_b'_d'']!wedge![e'g'c'']!wedge![_d'f'b']!wedge![c'e'g']!wedge![_a=b=d'f']!8va)! | %222
 !wedge![gc'e']!wedge![f_b_d']!wedge![egc']!wedge![_dfb]!wedge![ceg]!wedge![_A=B=df] | %223
 !wedge![Gce]!wedge![F_B_d]!wedge![EGc]!wedge![_DFB]!wedge![CEG]!wedge![_A,=B,=DF] | %224
[K:bass] !wedge![G,CE]!wedge![F,_B,_D]!wedge![E,G,C] !wedge![_D,F,B,]!wedge![E,G,] !^![_A,,=B,,F,] | %225
[Q:1/4=144] z z !^![_A,,B,,F,] z z [A,,B,,] | %226
!>(! !wedge![_A,,B,,_A,]!wedge![A,,B,,F,]!>)!!f! z[Q:1/4=120] !fermata!z[Q:1/4=132] !wedge!A,,/!wedge!G,,/!wedge!^F,,/[Q:1/4=80]!wedge!=F,,/ | %227
[Q:1/4=60] !fermata![E,,G,,C,]6 |] %228
V:2
!ped! [C,,,C,,][G,,,G,,][F,,,F,,][E,,,E,,][D,,,D,,][C,,,C,,] | %1
 !wedge![C,E,G,C]z/!wedge![C,E,G,C]/!wedge![C,E,G,C]zz/!wedge![C,E,G,C]/!wedge![C,E,G,C] | %2
 z z/ !wedge![C,E,G,C]/!wedge![C,E,G,C]!ped-up! !wedge![C,E,G,=B,]!wedge![C,E,G,C] z | %3
!ped! [=B,,,D,,]A,,G,,F,,E,,D,, | %4
 !arpeggio!!wedge![=B,,F,A,D]z/!wedge![B,,F,A,]/!wedge![B,,F,A,]zz/!wedge![F,A,D]/!wedge![F,A,D] | %5
 z z/ !wedge![=B,,F,A,]/!wedge![B,,F,A,]!ped-up! !wedge![B,,=E,A,]!wedge![B,,F,A,] z | %6
 z!ped! !wedge![C,,G,,C,] (C,/4D,/4E,/4F,/4)!wedge!G,!ped-up! !wedge![A,,,F,,A,,]!wedge![A,,,F,,A,,] | %7
!ped! !wedge![B,,,F,,B,,] (F,/4E,/4D,/4C,/4)!wedge!B,,!ped-up! !wedge![G,,,E,,G,,]!wedge![G,,,E,,G,,]!ped! !wedge![A,,,E,,A,,] | %8
 (A,,/4B,,/4C,/4D,/4)!wedge!E,!ped-up! !wedge![F,,,D,,F,,] !wedge![F,,,D,,F,,]!wedge![G,,,D,,G,,]!ped! (D,/4C,/4=B,,/4A,,/4) | %9
!wedge!G,,!ped-up! !wedge![=E,,_D,=E,]!wedge![E,,C,E,] !wedge![F,,C,F,]!ped! (=B,,/4C,/4=D,/4E,/4)!wedge!F,!ped-up! | %10
!ped! !wedge![_D,,A,,_D,] (D,/4E,/4F,/4_G,/4)!wedge!A,[K:treble] (_D/4E/4F/4_G/4)!wedge!A (_d/4e/4f/4_g/4) | %11
 !wedge!a z/[K:bass] !wedge![F,,_D,F,]/!wedge![F,,D,F,] !wedge![A,,F,A,]z/!wedge![D,A,_D]/!wedge![D,A,D] | %12
 z z/ !wedge![F,A,_DF]/!wedge![F,A,DF]!ped-up! !wedge![=E,A,C=E]!wedge![F,A,DF] z | %13
 !>!!wedge![=B,,D,A,=B,]z/!wedge![^C,^C]/!wedge![D,D] !>!!wedge![E,^F,=CE]z/!wedge![B,,B,]/!wedge![=C,C] | %14
 !wedge![G,=B,DG] D,,C,,=B,,,A,,,G,,, | %15
!ped! !wedge![G,,=A,,C,E,^F,]z/!wedge![G,,A,,C,E,F,]/!wedge![G,,A,,C,E,F,] z z/ !wedge![G,,A,,C,E,F,]/!wedge![G,,A,,C,E,F,] | %16
 z !wedge![G,,=A,,C,E,^F,]/!wedge![G,,A,,C,E,F,]/!wedge![G,,A,,C,E,F,]/!wedge![G,,A,,C,E,F,]/!ped-up! !wedge![G,,=B,,D,G,] D,,C,, | %17
=B,,,A,,,G,,,!ped! !wedge![G,,=A,,C,E,^F,]z/!wedge![G,,A,,C,E,F,]/!wedge![G,,A,,C,E,F,] | %18
 z z/ !wedge![G,,=A,,C,E,^F,]/!wedge![G,,A,,C,E,F,] z !wedge![G,,A,,C,E,F,]/!wedge![G,,A,,C,E,F,]/!wedge![G,,A,,C,E,F,]/!wedge![G,,A,,C,E,F,]/!ped-up! | %19
 !wedge![G,,=B,,D,G,] [D,,D,][C,,C,][=B,,,B,,][=A,,,=A,,][G,,,G,,] | %20
 !>![_A,,_A,][_G,,_G,][F,,F,][E,,E,][_D,,_D,] !wedge![D,F,A,_D] | %21
 !wedge![=G,,=B,,=D,=G,] [D,,D,][C,,C,][=B,,,B,,][=A,,,=A,,][G,,,G,,] | %22
 !>![_A,,_A,][_G,,_G,][F,,F,][E,,E,][_D,,_D,] !wedge![D,F,A,_D] | [=G,,=B,,=D,=G,]3 [F,,A,,C,F,]3 | %24
 [_D,,F,,A,,_D,]3 [C,,F,,A,,C,]3 | %25
!ped! (4:3:4!>![A,,,C,,=D,,A,,]2 !>![A,,,C,,D,,A,,]2 !>![A,,,C,,D,,A,,]2 !>![A,,,C,,D,,A,,]2!ped-up! | %26
 !wedge![G,,,=B,,,D,,G,,][K:treble] (9:8:9(!^!a/4g/4^f/4=f/4=e/4_e/4d/4^c/4=c/4) !wedge!=B (9:8:9(!^!A/4G/4^F/4=F/4=E/4_E/4D/4^C/4=C/4) | %27
 !wedge!=B,[K:bass] (9:8:9(!^!A,/4G,/4^F,/4=F,/4=E,/4_E,/4D,/4^C,/4=C,/4) !wedge!=B,, (9:8:9(!^!A,,/4G,,/4^F,,/4=F,,/4=E,,/4_E,,/4D,,/4^C,,/4=C,,/4) | %28
 (18:12:18(=B,,,/C,,/^C,,/D,,/E,,/=E,,/F,,/^F,,/G,,/A,,/G,,/F,,/=F,,/E,,/_E,,/D,,/^C,,/=C,,/) | %29
 =B,,, z z G,, z z | !fermata!z6 |!ped! C,,G,,F,,E,,D,,C,, | %32
 !wedge![C,E,G,C]z/!wedge![C,E,G,C]/!wedge![C,E,G,C]zz/!wedge![C,E,G,C]/!wedge![C,E,G,C] | %33
 z z/ !wedge![C,E,G,C]/!wedge![C,E,G,C]!ped-up! !wedge![C,E,G,=B,]!wedge![C,E,G,C] z | %34
!ped! [_C,,_D,,]A,,_G,,F,,E,,D,, | %35
 !wedge![_C,F,A,_D]z/!wedge![C,F,A,]/!wedge![C,F,A,] z z/ !wedge![F,A,D]/!wedge![F,A,D] | %36
 z z/ !wedge![_C,F,A,]/!wedge![C,F,A,]!ped-up! !wedge![C,=E,A,]!wedge![C,F,A,] z | %37
 z!ped! !wedge![B,,,F,,B,,] (B,,/4C,/4D,/4E,/4)!wedge!F,!ped-up! !wedge![B,,,_G,,B,,]!wedge![B,,,E,,B,,] | %38
 !wedge![B,,,F,,B,,]!ped! (F,/4E,/4D,/4C,/4)!wedge!B,,!ped-up! !wedge![__B,,,_G,,__B,,]!wedge![B,,,G,,B,,] !wedge![A,,,_F,,A,,] | %39
!ped! (_F,/4_G,/4A,/4__B,/4)!wedge!_C!ped-up! !wedge![__B,,,_G,,__B,,] !wedge![B,,,G,,B,,]!wedge![A,,,_F,,A,,]!ped! (C/4B,/4A,/4G,/4) | %40
!wedge!_F,!ped-up! !wedge![=G,,,_F,,=G,,]!wedge![G,,,=E,,G,,] !wedge![^F,,,=D,,^F,,]!ped! (D,/4=E,/4^F,/4G,/4)!wedge!=A, | %41
 !wedge![=F,,,D,,=F,,]!ped-up!!ped! (D,/4F,/4A,/4B,/4)!wedge!_C[K:treble] (D/4F/4A/4B/4)!wedge!_c (d/4^e/4^g/4^a/4) | %42
 !wedge!=b!ped-up! z/[K:bass]!ped! !wedge![^F,,,^D,,^F,,]/!wedge![F,,,D,,F,,] !wedge![=B,,,F,,=B,,]z/!wedge![D,,B,,^D,]/!wedge![D,,B,,D,] | %43
 z z/ !wedge![^F,,=B,,^F,]/!wedge![F,,B,,F,]!ped-up! !wedge![^E,,B,,^E,]!wedge![F,,B,,F,] z | %44
 !wedge![_A,,_E,_A,]z/!wedge![D,D]/!wedge![E,E] !wedge![=A,,E,_G,=A,]z/!wedge![D,D]/!wedge![E,E] | %45
 !wedge![B,,F,B,] F,,E,,D,,_C,,B,,, | %46
!ped! !wedge![B,,=C,E,_G,=A,]z/!wedge![B,,C,E,G,A,]/!wedge![B,,C,E,G,A,] z z/ !wedge![B,,C,E,G,A,]/!wedge![B,,C,E,G,A,] | %47
 z !wedge![B,,C,E,_G,=A,]/!wedge![B,,C,E,G,A,]/!wedge![B,,C,E,G,A,]/!wedge![B,,C,E,G,A,]/!ped-up! !wedge![B,,D,F,B,] [F,,F,][E,,E,] | %48
[D,,D,][_C,,_C,][B,,,B,,]!ped! !wedge![B,,=C,E,_G,=A,]z/!wedge![B,,C,E,G,A,]/!wedge![B,,C,E,G,A,] | %49
 z z/ !wedge![B,,C,E,_G,=A,]/!wedge![B,,C,E,G,A,] z !wedge![B,,C,E,G,A,]/!wedge![B,,C,E,G,A,]/!wedge![B,,C,E,G,A,]/!wedge![B,,C,E,G,A,]/!ped-up! | %50
 !wedge![B,,D,F,B,]!ped! x x4!ped-up! | %51
!ped! !wedge![A,,_F,A,]!wedge![_G,,_G,]!wedge![_F,,F,]!wedge![_D,,_D,]!wedge![_C,,_C,]!wedge![A,,,A,,]!ped-up! | %52
 !wedge![B,,,=F,,B,,]!ped! x x4!ped-up! | %53
!ped! !wedge![A,,_F,A,]!wedge![_G,,_G,]!wedge![_F,,F,]!wedge![_D,,_D,]!wedge![_C,,_C,]!wedge![A,,,A,,]!ped-up! | %54
 !wedge![B,,,=F,,B,,] z/[K:treble] [B,FA]/[B,FA] [B,FA] z/ [=A,E_G]/[A,EG] | %55
 !wedge![=A,E_G] z/ [=G,B,=E]/[G,B,E] !wedge![G,B,E] z/[K:bass] [F,_A,_D]/[F,A,D] | %56
 !wedge![F,A,_D] z/ [_C,F,_C]/[C,F,C] !wedge![C,F,C] z/ [B,,F,B,]/[B,,F,B,] | %57
 !wedge![B,,F,B,] z/ B,/B, B,z/B,/B, | .[E,B,E] z/ .[EG]/.[EG] .[EG]z/.[B,E]/.[B,E] | %59
 .Cz/.[C,G,]/.[C,G,] .[C,G,]3 | .[B,,F,A,]z/.[B,,D,A,]/.[B,,D,A,] .[B,,^C,A,].[B,,D,A,].[B,,D,A,] | %61
 ([E,G,]3 .[E,B,]) z z | .[EG]z/.[B,E]/.[B,E] .[B,E]z/.[G,B,]/.[G,B,] | %63
 .[G,C]z/.[C,G,]/.[C,G,] [C,G,]3 | %64
 .[G,,D,G,]z/.[G,,D,G,]/.[G,,D,G,] .[G,,D,G,].[G,,D,G,].[G,,D,G,] | %65
 !>!!fermata![G,,D,G,]3 !>!!fermata![B,,F,A,]3 | %66
!ped! .[E,,B,,E,]z/.[G,,E,G,]/.[G,,E,G,] .[G,,E,G,]z/.[B,,G,B,]/.[B,,G,B,]!ped-up! | %67
!ped! .[C,G,C]z/.[G,CE]/.[G,CE] [G,CE]3!ped-up! | %68
!ped! .[B,,F,B,]z/.[B,DF]/.[B,DF]!ped-up! .[B,^C=E].[B,DF].[B,D^F] | ([E,B,G]3 .[E,B,E]) z z | %70
!ped! .[E,,B,,E,]z/.[G,,E,G,]/.[G,,E,G,] .[G,,E,G,]z/.[B,,G,B,]/.[B,,G,B,]!ped-up! | %71
!ped! .[C,G,C]z/.[G,CE]/.[G,CE] [G,CE]3!ped-up! | %72
!ped! .[G,,D,G,]z/.[G,=B,D]/.[G,B,D]!ped-up! .[G,^A,^C].[G,B,D].[G,DG] | %73
!ped! [=B,,^F,=B,]z/[B,D^F]/[B,DF]"_ten." [B,DF]3!ped-up! | %74
!ped! [_G,,_D,_G,]z/[G,B,_D]/[G,B,D]!ped-up! .[G,=A,C].[G,B,D].[G,D_G] | %75
!ped! [B,,F,B,]z/[B,_DF]/[B,DF]"_ten." [B,DF]3!ped-up! | %76
!ped! [F,,C,F,]z/[=A,C]/[A,C]!ped-up!!ped! [=A,,=E,A,]z/[A,=B,^D]/[A,C=E]!ped-up! | %77
!ped! [=E,,=B,,=E,]z/[^G,=B,]/[G,B,]!ped-up!!ped! [_A,,_E,_A,]z/[A,_C=D]/[A,CE]!ped-up! | %78
!ped! [E,,E,]z/[B,EG]/[B,EG]!ped-up!!ped! [E,,E,]z/[B,E_G]/[B,EG]!ped-up! | %79
!ped! [_C,,_C,]z/[A,_C_F]/[A,CF]!ped-up!!ped! [=C,,=C,]z/[_G,__B,E]/[G,B,E]!ped-up! | %80
!ped! !wedge!!^![_D,,_D,] z/ [_G,B,_D]/[=G,B,D] [G,B,D]z/[A,_CD]/[F,A,D]!ped-up! | %81
!ped! !wedge!!^![_D,,_D,] z/ [_G,B,_D]/[=G,B,D] [G,B,D]z/[A,_CD]/[F,A,D]!ped-up! | %82
!ped! !wedge!!^![B,,,B,,] z/ [E,_G,B,]/[=E,=G,B,] [E,G,B,]z/[F,A,B,]/[D,F,B,]!ped-up! | %83
!ped! !wedge!!^![B,,,B,,] z/ [E,_G,B,]/[=E,=G,B,] [E,G,B,]z/[F,A,B,]/[D,F,B,]!ped-up! | %84
!ped! .[E,,B,,E,]z/.[E,,B,,E,]/.[E,,B,,E,] z2 z!ped-up! | %85
!ped! .[E,,B,,E,]z/.[E,,B,,E,]/.[E,,B,,E,] z2 z!ped-up! | %86
!ped! .[E,,_C,D,]z/.[E,,C,D,]/.[E,,C,D,] z2 z!ped-up! | %87
!ped! .[E,,B,,D,]z/.[E,,B,,D,]/.[E,,B,,D,] z2 z!ped-up! | %88
!ped! .[E,,B,,E,]z/.[E,,B,,E,]/.[E,,B,,E,] z2 z!ped-up! | %89
!ped! .[E,,B,,E,]z/.[E,,B,,E,]/.[E,,B,,E,] z2 z!ped-up! | %90
!ped! .[D,,C,D,]z/.[D,,C,D,]/.[D,,C,D,] z z/ [D,^F,]/[D,F,]!ped-up! | %91
!ped! z z/ [G,,D,G,]/[G,,D,G,] z [B,,A,B,][B,,A,B,]!ped-up! | %92
"_leggermente e stacc."!ped! .E,,.[G,B,].G,, .[G,B,].B,,.[G,B,]!ped-up! | %93
!ped! .E,.G,.B,, .G,.G,,.G,!ped-up! |!ped! .E,,.[A,_CD].A,, .[A,CD]._C,.[A,CD]!ped-up! | %95
!ped! .E,,.[A,B,F].B,, .[A,B,F].D,.[A,B,F]!ped-up! | %96
!ped! .E,,.[G,B,F].G,, .[G,B,E].B,,.[G,B,D]!ped-up! | %97
!ped! .E,.[G,C].B,, .[G,B,].G,,.[G,__B,]!ped-up! | %98
!ped! .D,,.[=A,CD].=A,,!ped-up!!ped! .[^F,CE].D,.[A,CD]!ped-up! | %99
!ped! .G,,.[=B,D].D,!ped-up!!ped! .[B,D].G,.[B,D]!ped-up! | %100
!ped! .=E,,.[G,=B,].G,, .[G,B,].=B,,.[G,B,]!ped-up! |!ped! .=E,.G,.=B,, .G,.=E,,.G,!ped-up! | %102
!ped! .C,,.[G,=A,^D].=A,, .[^F,A,D].C,.[F,A,D]!ped-up! | %103
!ped! .=B,,,.[^F,=A,^D].=B,, .[A,C^F].^D,.[A,=B,F]!ped-up! | %104
!ped! .=E,,.[G,=B,].G,, .[G,B,].=B,,.[G,B,]!ped-up! |!ped! .=E,.G,.=B,, .G,.=E,,.G,!ped-up! | %106
!ped! ._E,,.[G,=A,C].=A,, .[^F,A,C].C,.[F,A,E]!ped-up! | %107
!ped! .D,,.[^F,CE].=A,, .[F,CE].D,.[=A,CD]!ped-up! | %108
!ped! .G,,.[B,D=A].B,, .[B,DG].D,.[G,B,E]!ped-up! | %109
!ped! ._G,,.[CEB].F,, .[CE=A].=A,,.[CE_G]!ped-up! | %110
!ped! .B,,[K:treble].[_DFc][K:bass]._D,[K:treble] .[DFB][K:bass].F,.[B,_D_G]!ped-up! | %111
!ped! .__B,,[K:treble].[E_G_d][K:bass].A,,[K:treble] .[EGc][K:bass].C,[K:treble].[EGA]!ped-up! | %112
[K:bass]!ped! ._D,[K:treble].[FAe][K:bass].F,[K:treble] .[FA_d][K:bass].A,[K:treble].[FAc]!ped-up! | %113
[K:bass]!ped! ._C,[K:treble].[EFA_c][K:bass].F,[K:treble] .[EFAc]._C.[EFAc]!ped-up! | %114
[K:bass]!ped! .B,,.[DFAB].B,,!ped-up!!ped! .[D^FAB].B,,.[DFAB]!ped-up! || %115
[M:2/4]!ped! z/ !>![G,B,G]!>![G,B,F]!>![G,B,E]!>![G,B,D]/!ped-up! | %116
!ped! z/ !>![E,G,C]!>![E,G,=A,]!>![E,G,B,]!>![G,B,EG]/!ped-up! | %117
!ped! z/[K:treble]"_simile" !>![A,_CDG]!>![A,CD=E]!>![A,CDF]!>![A,CDG]/!ped-up! | %118
[K:bass]!ped! z/[K:treble] !>![_CDFA]!>![CDF=A]!>![B,DF_A=c]!>![B,DFAB]/!ped-up! | %119
[K:bass]!ped! z/ !>![G,B,G]!>![G,B,F]!>![G,B,E]!>![G,B,D]/!ped-up! | %120
!ped! z/ !>![E,G,C]!>![E,G,=A,]!>![E,G,B,]!>![G,B,EG]/!ped-up! | %121
!ped! z/ !>![=A,CG]!>![A,C^F][K:treble] !^![^F=Ae]!>![FAd]/!ped-up! | %122
[K:bass]!ped! z/[K:treble] !>![G=Bd]!>![DGB]!>![=B,DG]!>![G,B,DG]/!ped-up! | %123
[K:bass]!ped! z/ !>![CE_A]!>![CEG]!>![G,CF]!>![G,CE]/!ped-up! | %124
!ped! z/ !>![F,A,CE]!>![F,A,CD]!>![A,CD]!>![F,A,CD]/!ped-up! | %125
!ped! z/ !>![G,=B,E]!>![G,B,D]!>![D,G,C]!>![D,G,B,]/!ped-up! | %126
!ped! z/ !>![=B,,D,A,]!>![B,,D,G,]!>![B,,D,G,]!>![B,,D,G,]/!ped-up! | %127
!ped! z/ !>![C,E,_B,]!>![C,E,A,]!>![G,,C,E,G,]!>![G,,C,F,]/!ped-up! | %128
!ped! z/ !>![F,,A,,C,E,]!>![F,,A,,C,D,]!>![A,,C,D,]!>![F,,A,,C,D,]/!ped-up! | %129
!ped! z/ !>![G,,=B,,E,]!>![G,,B,,D,]!>![E,G,]!>![D,G,]/!ped-up! | %130
!ped! z/ !>![_D,F,]!>![D,F,]/z/!>![=E,,A,,D,]!>![F,,A,,D,]/!ped-up! | %131
!ped! z/ !>![G,,=B,,E,]!>![G,,B,,D,]!>![E,G,]!>![D,G,]/!ped-up! | %132
!ped! z/ !>![_D,F,]!>![D,F,]/z/!>![=E,,A,,D,]!>![F,,A,,D,]/!ped-up! || %133
[M:6/8] !wedge![G,,=D,] D,,C,,=B,,,A,,,G,,, | A,,G,,F,,E,,_D,, !wedge![_D,F,] | %135
 !wedge![G,,=D,] D,,C,,=B,,,A,,,G,,, | A,,G,,F,,E,,_D,, !wedge![_D,F,] | %137
 !wedge![A,,E,] E,,_D,,C,,B,,,A,,, | A,,_G,,_F,,E,,_D,, !wedge![^C,=E,] | %139
 !wedge![=A,,=E,] =E,,=D,,^C,,_B,,,=A,,, | =A,,G,,F,,=E,,D,, !wedge![D,F,] | %141
 !wedge![B,,F,] F,,_E,,D,,_C,,B,,, | !wedge![B,,_G,] _G,,F,,E,,_C,,B,,, | %143
 !wedge![=B,,_A,=B,] _A,,F,,D,,^C,,=B,,, | !wedge![^D,^B,^D] =A,,^G,,^F,,^D,,^B,,, | %145
[K:treble] !wedge![^C^F=A]z/!wedge![=A,CF]/!wedge![A,CF][K:bass] !wedge![^F,A,C]z/!wedge![^C,F,A,]/!wedge![C,F,A,] | %146
 =D,,=A,,=G,,^F,,=E,,D,, | %147
[K:treble] !wedge![DG_B]z/!wedge![_B,DG]/!wedge![_B,DG][K:bass] !wedge![G,B,D]z/!wedge![D,G,B,]/!wedge![D,G,B,] | %148
 E,,B,,_A,,G,,F,,E,, | %149
[K:treble] !wedge![^D^G=B]z/!wedge![=B,DG]/!wedge![B,DG][K:bass] !wedge![^G,=B,^D]z/!wedge![^D,G,B,]/!wedge![D,G,B,] | %150
 !wedge![=E,=B,=E]z/!wedge![^G,B,]/!wedge![G,B,] !wedge![B,E]z/!wedge![G,B,]/!wedge![G,B,] | %151
 !wedge![=A,,=E,C]z/!wedge![=A,C]/!wedge![A,C] !wedge![C=E]z/!wedge![A,C]/!wedge![A,C] | %152
 !wedge![F,,C,=A,]z/!wedge![F,A,C]/!wedge![F,A,C] !wedge![A,CF]z/!wedge![F,A,C]/!wedge![F,A,C] | %153
 !wedge![_D,_A,_D]z/!wedge![F,F]/!wedge![F,F] !wedge![B,,B,]z/!wedge![D,D]/!wedge![D,D] | %154
 !wedge![_G,,_G,]z/!wedge![B,,B,]/!wedge![B,,B,] !wedge![E,,E,]z/!wedge![G,,G,]/!wedge![G,,G,] | %155
!ped! =B,,!wedge!^F,!wedge!=E,!wedge!^D,!wedge!^C,!wedge!B,,!ped-up! | %156
[K:treble]!ped! !wedge![^D=B]z/!wedge![=B,^G]/!wedge![B,G][K:bass] !wedge![^G,^D]z/!wedge![^D,=B,]/!wedge![D,B,]!ped-up! | %157
!ped! ^G,,!wedge!^D,!wedge!^C,!wedge!=B,,!wedge!^A,,!wedge!G,,!ped-up! | %158
[K:treble]!ped! !wedge![=D=B]z/!wedge![=B,=F]/!wedge![B,F][K:bass] !wedge![F,D]z/!wedge![D,=B,]/!wedge![D,B,]!ped-up! | %159
!ped! !wedge!!^![^G,,^G,]z/!wedge!!^![^D,,^D,]/!wedge!!^![D,,D,]!ped-up!!ped! !wedge!!^![G,,G,]z/!wedge!!^![^C,,^C,]/!wedge!!^![C,,C,]!ped-up! | %160
!ped! !wedge!!^![^G,,^G,]z/!wedge!!^![=B,,,=B,,]/!wedge!!^![B,,,B,,] !wedge!!^![G,,G,]z/!wedge!!^![_B,,,_B,,]/!wedge!!^![B,,,B,,]!ped-up! | %161
"_simile"!ped! !wedge!!^![=A,,=A,]z/!wedge!!^![=A,,,A,,]/!wedge!!^![A,,,A,,] !wedge!!^![_B,,_B,]z/!wedge!!^![_A,,,_A,,]/!wedge!!^![A,,,A,,]!ped-up! | %162
!ped! !wedge!!^![=B,,=B,]z/!wedge!!^![A,,,A,,]/!wedge!!^![A,,,A,,]!ped-up!!ped! !wedge!!^![B,,B,]z/!wedge!!^![G,,,G,,]/!wedge!!^![G,,,G,,]!ped-up! || %163
[K:C]!ped! [C,,E,,G,,C,]z/[E,,G,,C,E,]/[E,,G,,C,E,] [E,,G,,C,E,]z/[G,,C,E,G,]/[G,,C,E,G,]!ped-up! | %164
!ped! [A,,C,E,A,]z/[C,E,A,C]/[C,E,A,C] [C,E,A,C]3!ped-up! | %165
!ped! [G,,D,G,]z/[G,B,F]/[G,B,F]!ped-up! !wedge![G,^A,F]!wedge![G,B,F]!wedge![G,B,F] | %166
!ped! (!^![CE]3!ped-up! .[EG]) z z | %167
!ped! [C,,E,,G,,C,]z/[E,,G,,C,E,]/[E,,G,,C,E,] [E,,G,,C,E,]z/[G,,C,E,G,]/[G,,C,E,G,]!ped-up! | %168
!ped! [A,,C,E,A,]z/[C,E,A,C]/[C,E,A,C] [C,E,A,C]3!ped-up! | %169
!ped! [B,,^D,^F,B,]z/[B,^D^F]/[B,DF]!ped-up! !wedge![B,D^E]!wedge![B,DF]!wedge![B,DF] | %170
[K:treble] !fermata![B,^D^FB]3 !fermata![=G,=D=FB]3 || %171
[M:2/4]!ped! [CEGc]/>[G,CEG]/ !wedge![G,CEG][K:bass] [E,G,CE]/>[C,E,G,C]/ !wedge![C,E,G,C]!ped-up! | %172
!ped! [A,,C,E,A,]/>[E,,A,,C,E,]/ !wedge![E,,A,,C,E,] [C,,E,,A,,C,]/>[A,,,C,,E,,A,,]/ !wedge![A,,,C,,E,,A,,]!ped-up! || %173
[M:6/8]!ped! [G,,,D,,G,,] z/ [G,,B,,D,]/[G,,B,,D,]!ped-up! !wedge![G,,^A,,C,]!wedge![G,,B,,D,]!wedge![G,,B,,^D,] | %174
!ped! (!^![C,E,]3 [C,,E,,G,,C,]) z z!ped-up! || %175
[M:2/4][K:treble]!ped! [cegc']/>[Gceg]/ !wedge![Gceg] [EGce]/>[CEGc]/ !wedge![CEGc]!ped-up! | %176
!ped! [A,CEA]/>[K:bass][E,A,CE]/ !wedge![E,A,CE] [C,E,A,C]/>[A,,C,E,A,]/ !wedge![A,,C,E,A,]!ped-up! || %177
[M:6/8]!ped! !arpeggio!!wedge![E,,^G,,B,,E,] z/ [B,,B,]/[B,,B,]!ped-up! !wedge![^A,,^A,]!wedge![B,,B,]!wedge![E,E] | %178
!ped! !arpeggio!!wedge![_A,,_E,_A,] z/ [E,_E]/[E,E]!ped-up! !wedge![D,D]!wedge![E,E]!wedge![E,E] | %179
!ped! !arpeggio!!wedge![_E,,G,,_B,,_E,] z/ [B,,_B,]/[B,,B,]!ped-up! !wedge![A,,A,]!wedge![B,,B,]!wedge![E,_E] | %180
!ped! !arpeggio!!wedge![G,,D,G,] z/ [D,D]/[D,D]!ped-up! !wedge![^C,^C]!wedge![D,D]!wedge![D,D] | %181
!ped! !wedge!!^![D,,D,] [D,^F,A,][D,F,=B,]!ped-up!!ped! !wedge!!^![^F,,F,] [F,^G,^B,][F,A,^C]!ped-up! | %182
!ped! !wedge!!^![_D,,_D,] [D,=F,_A,][D,F,_B,]!ped-up!!ped! !wedge!!^![F,,F,] [F,G,=B,][F,A,C]!ped-up! || %183
[M:2/4]!ped! [C,,C,]/z/4[G,CE]/4[G,CE]!ped-up!!ped! [C,,C,]/z/4[G,C_E]/4[G,CE]!ped-up! | %184
!ped! [_A,,,_A,,]/z/4[F,_A,_D]/4[F,A,D]!ped-up!!ped! [=A,,,=A,,]/z/4[_E,^F,C]/4[E,F,C]!ped-up! || %185
[M:6/8] !wedge!!^![_B,,,_B,,]z/!wedge![_E,_G,]/!wedge![=E,=G,] !wedge![E,G,]z/!wedge![F,_A,]/!wedge![D,F,] | %186
 !wedge!!^![_B,,,_B,,]z/!wedge![_E,_G,]/!wedge![=E,=G,] !wedge![E,G,]z/!wedge![F,_A,]/!wedge![D,F,] | %187
 !wedge!!^![^C,,^C,]z/!wedge![^F,A,]/!wedge![^^F,^A,] !wedge![F,A,]z/!wedge![^G,B,]/!wedge![^E,G,] | %188
 !wedge!!^![^C,,^C,]z/!wedge![^F,A,]/!wedge![^^F,^A,] !wedge![F,A,]z/!wedge![^G,B,]/!wedge![^E,G,] | %189
 !wedge!!^![E,,E,]z/!wedge![A,C]/!wedge![^A,^C] !wedge![A,C]z/!wedge![B,D]/!wedge![^G,B,] | %190
 !wedge!!^![=G,,=G,]z/!wedge![C_E]/!wedge![^C=E] !wedge![CE]z/!wedge![DF]/!wedge![B,D] | %191
 !wedge!!^![G,,G,]z/!wedge![C_EG]/!wedge![^C=EG] !wedge![CEG]z/!wedge![DFG]/!wedge![G,DG] | %192
 !wedge!!^![G,,G,]z/!wedge![^CEG]/!wedge![DFG] !wedge![DFG]z/!wedge![_A,DF_A]/!wedge![G,DFG] | %193
!ped! !wedge![C,,C,] .[E,G,D].C,.[E,G,C].C,.[E,G,B,]!ped-up! | %194
!ped! !wedge!C,, .[E,^F,A,].C,.[E,G,].C,.[G,CE]!ped-up! | %195
!ped! !wedge![C,,C,] .[^F,A,E].C,.[F,A,D].C,.[F,A,E]!ped-up! | %196
!ped! !wedge!C, .[G,B,=F].C,.[B,FA].C,.[B,FG]!ped-up! | %197
!ped! !wedge![C,,C,] .[E,G,D].C,.[E,G,C].C,.[E,G,B,]!ped-up! | %198
!ped! !wedge!C, .[E,^F,A,].C,.[E,G,].C,.[G,CE]!ped-up! | %199
!ped! !wedge!B,,, .[^F,A,^D].B,,.[A,DG].B,,.[A,D^F]!ped-up! | %200
!ped! !wedge![E,,E,] .[B,EA].[B,EG]!ped-up!!ped! !wedge![G,,G,] .[B,=D=FA].[B,DFG]!ped-up! || %201
[M:2/4]!ped! z/[K:treble]"_legato" [EGe][DEGd][CEGc][B,EGB]/ | %202
 z/ [A,CEA][^F,CE^F][G,CEG]/[K:bass] x!ped-up! | %203
!ped! z/[K:treble] [E^FAe][^CFA^c][DFAd][EFAe]/!ped-up! | %204
!ped! z/ [=F_AB=f][DFAd][B,DFB]/[K:bass] x!ped-up! |!ped! z/ [E,G,E][E,G,D][E,G,C][E,G,B,]/ | %206
 z/ [C,E,A,][C,E,^F,][C,E,G,]/ x!ped-up! |!ped! z/ [=F,_A,=F][F,A,_E][F,A,_D][F,A,C]/ | %208
 z/ [C,F,_B,][C,F,G,][C,F,_A,]/ x!ped-up! |!ped! z/ [^F,=A,^F][F,A,E][F,A,D]/ x!ped-up! | %210
!ped! z/ [G,_B,G][G,B,=F][G,B,E]/ x!ped-up! |!ped! z/ [=B,D_A][B,DG][_A,B,F][F,A,D]/ | %212
 z/ [D,F,B,][B,,D,_A,][B,,D,G,][_A,,B,,F,]/ | z/ [F,,_A,,D,][D,,F,,B,,][B,,,D,,A,,][B,,,D,,G,,]/ | %214
 z/ [B,,,D,,F,,][_A,,,B,,,D,,_A,,][G,,,B,,,D,,G,,][F,,,B,,,D,,F,,]/!ped-up! || %215
[M:6/8]!fff!!ped! !^![C,,,E,,,G,,,C,,]3 !wedge![E,G,C]z/!wedge![C,E,G,]/!wedge![C,E,G,]!ped-up! | %216
!ped! !^![G,,,_B,,,_D,,G,,]3 !wedge![F,_B,_D]z/!wedge![_D,F,_B,]/!wedge![D,F,_B,]!ped-up! | %217
!ped! !^![C,,,E,,,G,,,C,,]3 !wedge![E,G,C]z/!wedge![C,E,G,]/!wedge![C,E,G,]!ped-up! | %218
!ped! !^![F,,,_A,,,=B,,,D,,F,,]3 !wedge![B,D_A]z/!wedge![_A,B,F]/!wedge![A,B,F]!ped-up! | %219
!ped! (!^![C,,E,,G,,C,]2 !wedge![G,C])!ped-up!!ped! (!^![G,,,_B,,,_D,,G,,]2 !wedge![F,_B,_D])!ped-up! | %220
!ped! (!^![C,,E,,G,,C,]2 !wedge![E,G,C])!ped-up!!ped! (!^![F,,,_A,,,=B,,,=D,,F,,]2 !wedge![_A,=B,=DF])!ped-up! | %221
 !wedge![C,,C,]!wedge![G,,,G,,]!wedge![C,,C,]!wedge![G,,,G,,]!wedge![C,,C,]!wedge![F,,,F,,] | %222
 !wedge![C,,C,]!wedge![G,,,G,,]!wedge![C,,C,]!wedge![G,,,G,,]!wedge![C,,C,]!wedge![F,,,F,,] | %223
 !wedge![C,,C,]!wedge![G,,,G,,]!wedge![C,,C,]!wedge![G,,,G,,]!wedge![C,,C,]!wedge![F,,,F,,] | %224
 !wedge![C,,C,]!wedge![G,,,G,,]!wedge![C,,C,] !wedge![G,,,G,,]!wedge![C,,C,] !^![F,,,=B,,,=D,,F,,] | %225
 z z !^![F,,,B,,,D,,F,,] z z !^![F,,,B,,,D,,F,,] | %226
 !wedge![F,,,B,,,D,,F,,]!wedge![F,,,B,,,D,,F,,] z !fermata!z !wedge!_A,,,/!wedge!G,,,/!wedge!^F,,,/!wedge!=F,,,/ | %227
 !fermata![C,,,E,,,G,,,C,,]6 |] %228
V:3
 x6 | x6 | x6 | x6 | x6 | x6 | x6 | x6 | x6 | x!8va(! x3!8va)! x2 |!8va(! x!8va)! x4!8va(! x | %11
 x6!8va)! | x6 | x6 | x6 | x6 | x6 | x6 | x6 | x6 | x6 | x6 | x5!8va(! x | x6 | x6 | x6!8va)! | %26
[I:staff +1] !wedge!!stemless![D,F,]!8va(! x191/64!8va)! x127/64 | %27
 x255/64[I:staff -1][K:bass] x127/64 | x6 | x6 | x6 | x6 |[K:treble] x6 | x6 | x6 | x6 | x6 | x6 | %38
 x6 | x2!8va(! x3!8va)! x | x!8va(! x3!8va)! x2 |!8va(! x!8va)! x4!8va(! x | x6 | x6 | x6 | %45
 x!8va)! x5 | x6 | x6 | x3!8va(! x3 | x6 | x!8va)! x5 | x3!8va(! x3 | x!8va)! x5 | x3!8va(! x3 | %54
 x!8va)! x5 | x6 | x3/2!8va(! x9/2 | x!8va)! x5 | x6 | x6 | x6 | x6 | x6 | x6 | x6 | x6 | x6 | x6 | %68
 x6 | x6 |!8va(! x6 | x6 | x6 | x6 | x6 | x6 | x!8va)! x5 | x6 | x6 | x6 | x6 | x6 | x6 | x6 | %84
 z/ G,/B,/F/G,/B,/ E/G,/B,/D/G,/B,/ | z/ G,/B,/C/G,/=A,/ z/ G,/B,/E/G,/B,/ | %86
 G/A,/_C/=E/A,/C/ F/A,/C/G/A,/C/ | A/A,/D/=A/_A,/D/ c/A,/D/B/A,/D/ | %88
 z/ G,/B,/F/G,/B,/ E/G,/B,/D/G,/B,/ | z/ G,/B,/C/G,/=A,/ z/ G,/B,/!<(!E/G,/B,/!<)! | %90
 G/=A,/C/^F/A,/!p!C/ B/C/D/=A/C/!pp!D/ | c/B,/D/B/B,/D/ d/"^rall."D/F/c/D/B/ | %92
 z/ G/B/f/G/B/ e/G/B/d/G/B/ | z/ G/B/c/G/=A/ z/ G/B/e/G/B/ | G/A/_c/=E/!<(!A/c/ F/A/c/G/A/c/ | %95
 A/d/f/=A/d/f/!<)! c/d/f/B/d/f/ | z/ G/B/f/G/B/ e/G/B/d/G/B/ | z/ G/B/c/G/=A/ z/ G/B/e/G/B/ | %98
 G/=A/c/^F/A/c/ e/^f/=a/d/f/a/ | d/g/=b/=B/d/g/ G/B/d/G/B/d/ | z/ G/=B/^f/G/B/ =e/G/B/d/G/B/ | %101
 z/ G/=B/c/G/B/ z/ G/B/=e/G/B/ | G/=A/^d/^E/A/d/ ^F/A/d/G/A/d/ | ^G/^d/^f/=A/d/f/ c/d/f/=B/d/f/ | %104
 z/ G/=B/^f/G/B/ =e/G/B/d/G/B/ | z/ G/=B/c/G/B/ z/ G/B/=e/G/B/ | G/=A/c/F/A/c/ ^F/A/c/G/A/c/ | %107
 ^G/c/^f/=A/c/f/ e/f/=a/d/f/a/ | z/ B/d/=a/!<(!B/d/ g/B/d/f/B/e/!<)! | %109
 z/"_cresc." c/e/b/c/e/ =a/c/e/_g/c/e/ | z/ _d/f/c'/d/f/ b/d/f/a/d/_g/ | %111
 z/ e/_g/_d'/e/g/ c'/e/g/__b/e/a/ |!8va(! z/ f/a/e'/f/a/ _d'/f/a/c'/f/a/ | %113
 z/ e/a/_c'/e/a/ z/ e/a/c'/e/a/ | z/ d/[ab]/!>!f'/d/[ab]/ z/ d/[ab]/!>!^f'/d/[ab]/ || %115
[M:2/4] g=fed | c=AB !>!g' | g' =e' f' g' | a' =a' c'' b' | g=fed | c=AB !>!g' | %121
 g' ^f' !^!e'' d'' | d'' =b' g' g' | !^!_a' g' f' e' | e' d' d' d' | !^!e' d'!8va)! c' =b | %126
 a g g g | !^!_b a g f | e d d d | !^!e d c =B | _B A G F | e =d c =B | _B A G F ||[M:6/8] x6 | %134
 x6 | x6 | x6 | x6 | x6 | x6 | x6 | x6 | x6 | x6 | x6 | x6 | x6 | x6 | x6 | x6 | x6 | x6 | x6 | %153
 x6 | x6 |!8va(! (2:12:2x/x/ | (2:12:2x/x/ | (2:12:2x/x/ | (2:12:2x/x/ | %159
 !///-!x3/2 x3/2 !///-!x3/2 x3/2 | (2:12:2x/x/ | (2:12:2x/x/ | !///-!x3/2 x3/2 !///-!x3/2 x3/2 || %163
[K:C] x6!8va)! | x6 | x6 | x6 |!8va(! x6!8va)! | x6 | x6 | x6 ||[M:2/4] x4 | x7/4[K:bass] x9/4 || %173
[M:6/8] x6 | x103/40[K:treble] x103/48!8va(! x41/32 ||[M:2/4] x3!8va)! x | x4 ||[M:6/8] x6 | x6 | %179
 x6 | x6 | x6 | x6 ||[M:2/4] x4 | x4 ||[M:6/8] x6 | x6 | x6 | x6 | x2!8va(! x3!8va)! x | %190
 x2!8va(! x3!8va)! x | x2!8va(! x3!8va)! x | x2!8va(! x3!8va)! x |x/g/c'/x/e/g/x/e/g/x/e/g/ | %194
x/c/e/x/c/e/x/c/e/x/g/c'/ |x/^f/a/x/f/a/x/f/!<(!a/x/f/a/ |x/b/!<)!!f!d'/x/b/d'/x/b/d'/x/b/!p!d'/ | %197
 x6 | x6 |!8va(! x6 | x6 ||[M:2/4] x4 | x4 | x4 | x4!8va)! | x4 | x4 | x4 | x4 | x4 | x4 | x4 | %212
 x4 | x4 | x4 ||[M:6/8][I:staff +1] !^!C,3 x2!8va(! x!8va)! | !^!_D,3 x2!8va(! x!8va)! | %217
 !^!C,3 x2!8va(! x!8va)! | !^!F,3!8va(! x3!8va)! | x6 | x3!8va(! x3 | x6!8va)! | x6 | x6 | %224
[I:staff -1][K:bass] x6 | x6 | x6 | x6 |] %228
V:4
 x6 | x6 | x6 | x6 | x6 | x6 | x6 | x6 | x6 | x6 | x3[K:treble] x3 | x3/2[K:bass] x9/2 | x6 | x6 | %14
 x6 | x6 | x6 | x6 | x6 | x6 | x6 | x6 | x6 | x6 | x6 | x6 | x[K:treble] x199/40 | %27
 x[K:bass] x199/40 | x6 | x6 | x6 | x6 | x6 | x6 | x6 | x6 | x6 | x6 | x6 | x6 | x6 | %41
 x3[K:treble] x3 | x3/2[K:bass] x9/2 | x6 | x6 | x6 | x6 | x6 | x6 | x6 | x6 | x6 | x6 | x6 | %54
 x3/2[K:treble] x9/2 | x9/2[K:bass] x3/2 | x6 | x6 | x6 | x6 | x6 | x6 | x6 | x6 | x6 | x6 | x6 | %67
 x6 | x6 | x6 | x6 | x6 | x6 | x6 | x6 | x6 | x6 | x6 | x6 | x6 | x6 | x6 | x6 | x6 | x6 | x6 | %86
 x6 | x6 | x6 | x6 | x6 | x6 | x .F x .E x .D | x .C x .B, x .B, | x6 | x6 | x6 | x6 | x6 | x6 | %100
 x .^F x .=E x .D | x .C x .=B, x .B, | x6 | x6 | x .^F x .=E x .D | x .C x .=B, x .B, | x6 | x6 | %108
 x6 | x6 | x[K:treble] x[K:bass] x[K:treble] x[K:bass] x2 | %111
 x[K:treble] x[K:bass] x[K:treble] x[K:bass] x[K:treble] x | %112
[K:bass] x[K:treble] x[K:bass] x[K:treble] x[K:bass] x[K:treble] x | %113
[K:bass] x[K:treble] x[K:bass] x[K:treble] x3 |[K:bass] x6 ||[M:2/4] !>![E,,E,] x3 | %116
 !>![E,,E,] x3 | !>![E,,E,][K:treble] x3 |[K:bass] !>![E,,E,][K:treble] x3 | %119
[K:bass] !>![E,,E,] x3 | !>![E,,E,] x3 | !>![D,,D,] x3/2[K:treble] x3/2 | %122
[K:bass] !>![G,,G,][K:treble] x3 |[K:bass] !>!G,, x3 | !>!F,, x3 | !>!G,, x3 | x4 | !>!G,,, x3 | %128
 !>!F,,, x3 | !>!G,,, x3 | !>!_D,, x3 | !>!G,,, x3 | !>!_D,, x3 ||[M:6/8] x6 | x6 | x6 | x6 | x6 | %138
 x6 | x6 | x6 | x6 | x6 | x6 | x6 |[K:treble] x3[K:bass] x3 | x6 |[K:treble] x3[K:bass] x3 | x6 | %149
[K:treble] x3[K:bass] x3 | x6 | x6 | x6 | x6 | x6 | =B,,, x5 |[K:treble] x3[K:bass] x3 | ^G,,, x5 | %158
[K:treble] x3[K:bass] x3 | x6 | x6 | x6 | x6 ||[K:C] x6 | x6 | x6 | x6 | x6 | x6 | x6 | %170
[K:treble] x6 ||[M:2/4] x2[K:bass] x2 | x4 ||[M:6/8] x6 | x6 ||[M:2/4][K:treble] x4 | %176
 x3/4[K:bass] x13/4 ||[M:6/8] x6 | x6 | x6 | x6 | x6 | x6 ||[M:2/4] x4 | x4 ||[M:6/8] x6 | x6 | %187
 x6 | x6 | x6 | x6 | x6 | x6 | x6 | x6 | x6 | x6 | x6 | x6 | x6 | x6 || %201
[M:2/4] [C,,C,]/[K:treble] x7/2 | x3[K:bass] z/ (C,,/- |!wedge![C,,C,]/)[K:treble] x7/2 | %204
 x3[K:bass] z/ (C,,/- |!wedge![C,,C,]/) x7/2 | x3 z/ (C,,/- |!wedge![C,,C,]/) x7/2 | x3 z/ (C,,/- | %209
!wedge![C,,C,]/) x5/2 z/ (C,,/- |!wedge![C,,C,]/) x5/2 z/ (C,,/- | !wedge![C,,C,]/) x7/2 | x4 | %213
 x4 | x4 ||[M:6/8] x6 | x6 | x6 | x6 | x6 | x6 | x6 | x6 | x6 | x6 | x6 | x6 | x6 |] %228

